projects/front-end-library/src/lib/components/logo/svg/logo-videotron-business-medium-fr.svg

<svg width="181" height="40" viewBox="0 0 181 40" fill="none" xmlns="http://www.w3.org/2000/svg">
    <path d="M40 0H0V40H40V0Z" class="fill-brand"/>
    <path d="M10.8052 10.2654L30.1556 19.8876L10.782 29.7332L23.2431 19.9173L10.8052 10.2654Z" fill="#050504"/>
    <path d="M57.0323 14.6238L53.5768 3.75586H50.9465L55.5738 17.7949H58.4584L63.1065 3.75586H60.5039L57.0323 14.6238Z" fill="currentColor"/>
    <path d="M94.1779 0H91.4875L89.7078 2.29747H91.9567L94.1779 0Z" fill="currentColor"/>
    <path d="M95.5484 15.4466H89.1807V12.005H95.0977V9.64515H89.1807V6.10418H95.5484V3.75586H86.7145V17.7949H95.5484V15.4466Z" fill="currentColor"/>
    <path d="M80.7467 17.3743C81.4126 16.9251 82.0005 16.37 82.4871 15.7309C82.7365 15.3304 82.8597 14.8641 82.8408 14.3926V7.209C82.8641 6.73447 82.7336 6.26508 82.4686 5.87073C82.1843 5.46856 81.2945 4.46082 80.7744 4.15803C80.3399 3.89757 79.8434 3.75867 79.3368 3.75586H72.9089V17.7972H79.3368C79.8344 17.7747 80.3188 17.6294 80.7467 17.3743V17.3743ZM75.3751 15.4466V6.10418H79.1033C79.1756 6.0992 79.2483 6.10623 79.3183 6.12498C79.7409 6.38566 80.0963 6.74192 80.3561 7.16509C80.3681 7.20323 80.3743 7.24297 80.3746 7.28296V14.3534C80.3746 14.6238 79.6696 15.2409 79.3368 15.4281C79.2864 15.4424 79.2342 15.4486 79.1819 15.4466H75.3751Z" fill="currentColor"/>
    <path d="M68.5867 3.75586H66.1205V17.8042H68.5867V3.75586Z" fill="currentColor"/>
    <path d="M160.735 3.75586V13.1977L155.911 3.75586H153.26V17.7949H155.724V8.47099L160.587 17.7949H163.199V3.75586H160.735Z" fill="currentColor"/>
    <path d="M135.992 17.7972L133.203 12.0721C133.421 11.9937 133.627 11.8814 133.81 11.7392C134.279 11.374 134.705 10.9577 135.082 10.498C135.364 10.0715 135.512 9.56969 135.505 9.05807V6.99636C135.507 6.48832 135.36 5.99082 135.082 5.56564C134.709 5.08831 134.282 4.65555 133.81 4.27591C133.319 3.94189 132.74 3.76092 132.146 3.75586H125.545V17.7972H128.009V12.25H130.709L133.32 17.7972H135.992ZM133.038 9.03958C133.036 9.07388 133.026 9.10717 133.008 9.13666C132.823 9.46025 132.354 9.91096 132.146 9.91096H128.009V6.10418H132.264C132.495 6.12498 132.872 6.59187 133.008 6.85768C133.03 6.90729 133.04 6.9609 133.038 7.01485V9.03958Z" fill="currentColor"/>
    <path d="M147.463 4.0796C147.022 3.81658 146.521 3.6717 146.007 3.65894H142.429C141.916 3.67012 141.414 3.81512 140.973 4.0796C140.483 4.36389 139.542 5.36933 139.261 5.77381C139.003 6.17163 138.873 6.63851 138.888 7.11208V14.4691C138.874 14.9396 139.004 15.4033 139.261 15.7981C139.542 16.2026 140.483 17.2173 140.973 17.4923C141.413 17.7598 141.915 17.908 142.429 17.9222H146C146.515 17.9059 147.016 17.7579 147.457 17.4923C147.947 17.2173 148.866 16.2026 149.169 15.7981C149.425 15.403 149.556 14.9397 149.544 14.4691V7.11208C149.556 6.63994 149.426 6.17504 149.169 5.77843C148.866 5.36933 147.947 4.36389 147.463 4.0796ZM147.094 14.4413C147.092 14.4757 147.082 14.5091 147.064 14.5384C146.789 14.9364 146.44 15.2784 146.037 15.5462C145.999 15.5582 145.959 15.5644 145.919 15.5646H142.526C142.486 15.5663 142.446 15.56 142.409 15.5462C142 15.2816 141.649 14.9391 141.373 14.5384C141.359 14.5079 141.352 14.4748 141.352 14.4413V7.17911C141.353 7.13968 141.36 7.10061 141.373 7.06354C141.649 6.6573 142 6.30807 142.409 6.03499C142.429 6.00726 142.526 6.00726 142.526 6.00726H145.913C145.954 6.00586 145.994 6.01544 146.03 6.03499C146.433 6.31106 146.781 6.65987 147.057 7.06354C147.087 7.09359 147.087 7.17911 147.087 7.17911L147.094 14.4413Z" fill="currentColor"/>
    <path d="M122.207 3.75586H112.13V6.10418H115.937V17.8042H118.401V6.10418H122.207V3.75586Z" fill="currentColor"/>
    <path d="M109.481 15.7981C109.731 15.4006 109.86 14.9387 109.851 14.4691V7.11208C109.861 6.63941 109.733 6.17409 109.481 5.77381C109.176 5.36933 108.256 4.36389 107.757 4.0796C107.322 3.82063 106.828 3.67593 106.322 3.65894H102.739C102.224 3.66908 101.722 3.81413 101.281 4.0796C100.774 4.36389 99.8499 5.36933 99.5702 5.77843C99.3096 6.1753 99.1758 6.64203 99.1865 7.1167V14.4691C99.1771 14.9407 99.3108 15.4041 99.5702 15.7981C99.8429 16.2026 100.784 17.2173 101.281 17.4923C101.721 17.7607 102.224 17.909 102.739 17.9222H106.322C106.833 17.9044 107.331 17.7564 107.769 17.4923C108.256 17.2173 109.176 16.2026 109.481 15.7981ZM107.385 14.4413C107.384 14.4745 107.378 14.5073 107.366 14.5384C107.086 14.9379 106.731 15.28 106.322 15.5462C106.283 15.558 106.244 15.5643 106.204 15.5646H102.827C102.788 15.5655 102.748 15.5592 102.711 15.5462C102.304 15.2818 101.954 14.9393 101.68 14.5384C101.662 14.5095 101.652 14.4757 101.653 14.4413V7.17911C101.653 7.139 101.663 7.09953 101.68 7.06354C101.954 6.6571 102.304 6.30777 102.711 6.03499C102.739 6.00726 102.827 6.00726 102.827 6.00726H106.213C106.254 6.00586 106.295 6.01544 106.331 6.03499C106.737 6.31059 107.088 6.65938 107.366 7.06354C107.379 7.10063 107.386 7.13978 107.385 7.17911V14.4413Z" fill="currentColor"/>
    <path d="M76.9791 36.2648H78.3983V29.9179H84.7175V28.5565H78.3983V23.5779H85.0596V22.2073H76.9791V36.2648Z" fill="currentColor"/>
    <path d="M65.1913 36.2648H66.6081V29.9179H72.9204V28.5565H66.6081V23.5779H73.2717V22.2073H65.1913V36.2648Z" fill="currentColor"/>
    <path d="M57.7165 22.2073H55.5738L50.8795 36.2163V36.2648H52.3634L53.4405 33.0174H59.8637L60.9015 36.2371V36.2648H62.4177L57.7257 22.2281L57.7165 22.2073ZM56.7665 23.6079L59.4199 31.6491H53.8727L56.503 23.6079H56.7665Z" fill="currentColor"/>
    <path d="M140.599 29.4373L134.231 27.6668C134.023 27.5916 133.844 27.4529 133.72 27.2703C133.595 27.0878 133.532 26.8707 133.538 26.6498V25.1936C133.543 25.0931 133.573 24.9954 133.625 24.9093C133.992 24.3528 134.484 23.8903 135.063 23.5595C135.151 23.5155 135.249 23.4956 135.347 23.5017H138.634C138.733 23.4961 138.831 23.5194 138.916 23.5688C139.492 23.9399 139.975 24.439 140.326 25.0272C140.387 25.1201 140.44 25.2184 140.483 25.3208L140.502 25.3508L141.888 24.9394H141.928L141.907 24.9093C141.756 24.5859 141.577 24.2765 141.371 23.9848C141.096 23.6242 140.446 22.8291 139.912 22.5079C139.548 22.2859 139.134 22.158 138.708 22.1357H135.241C134.815 22.1553 134.4 22.2834 134.037 22.5079C133.421 22.9751 132.876 23.5286 132.419 24.1512C132.213 24.5002 132.114 24.9021 132.135 25.3069V26.7446C132.135 27.8101 132.731 28.73 133.602 28.975L139.989 30.7247C140.451 30.8426 140.714 31.3511 140.714 31.7833V33.2833C140.712 33.382 140.689 33.4791 140.645 33.5676C140.267 34.1311 139.77 34.6046 139.189 34.9544C139.107 34.9963 139.015 35.0162 138.923 35.0122H135.225C135.118 35.0173 135.011 34.9976 134.913 34.9544C134.344 34.5703 133.864 34.0701 133.503 33.4867C133.436 33.4083 133.383 33.3192 133.346 33.2232V33.1932L131.984 33.5769H131.945L131.966 33.6162C132.109 33.9352 132.283 34.2395 132.486 34.5245C132.749 34.8874 133.41 35.6686 133.933 36.0038C134.306 36.2289 134.729 36.3591 135.165 36.3828H139.041C139.468 36.3623 139.882 36.2317 140.243 36.0038C140.86 35.5489 141.406 35.0034 141.861 34.3858C142.073 34.039 142.176 33.6364 142.157 33.2302V31.6469C142.117 30.5906 141.491 29.6915 140.599 29.4373Z" fill="currentColor"/>
    <path d="M120.21 36.2648H128.291V34.8873H121.63V29.9179H127.942V28.5565H121.63V23.5779H128.291V22.2073H120.21V36.2648Z" fill="currentColor"/>
    <path d="M114.508 29.6338C114.95 29.2707 115.351 28.8607 115.703 28.4111C115.944 28.0491 116.07 27.623 116.064 27.1884V25.1313C116.068 24.6941 115.943 24.2654 115.703 23.8994C115.349 23.4436 114.948 23.0254 114.508 22.6512C114.102 22.3549 113.613 22.1933 113.11 22.189H106.784V36.265H108.203V30.0822H111.647L115.082 36.2465V36.265H116.7L113.216 30.0822C113.684 30.0752 114.137 29.918 114.508 29.6338ZM108.208 23.5758H113.089C113.22 23.5622 113.353 23.5862 113.471 23.6451C113.931 23.9365 114.317 24.3324 114.596 24.8008C114.64 24.9268 114.656 25.0609 114.642 25.1937V27.1491C114.654 27.2782 114.637 27.4083 114.594 27.5305C114.312 27.9835 113.926 28.363 113.468 28.6376C113.351 28.7006 113.22 28.7309 113.087 28.7254H108.208V23.5758Z" fill="currentColor"/>
    <path d="M102.593 22.2073H101.174V36.2648H102.593V22.2073Z" fill="currentColor"/>
    <path d="M93.6994 22.2073H91.5568L86.8601 36.2163V36.2648H88.3463L89.4234 33.0174H95.8512L96.8983 36.2371V36.2648H98.4145L93.7086 22.2281L93.6994 22.2073ZM92.7494 23.6079L95.4028 31.6491H89.8556L92.4859 23.6079H92.7494Z" fill="currentColor"/>
</svg>

<svg width="181" height="40" fill="none" xmlns="http://www.w3.org/2000/svg"><path d="M40 0H0v40h40V0Z" class="fill-brand"/><path d="m10.805 10.265 19.35 9.623-19.373 9.845 12.461-9.816-12.438-9.652Z" fill="#050504"/><path d="M57.032 14.624 53.577 3.756h-2.63l4.627 14.039h2.884l4.648-14.04h-2.602l-3.472 10.869ZM94.178 0h-2.69l-1.78 2.297h2.249L94.177 0ZM95.548 15.447h-6.367v-3.442h5.917v-2.36H89.18v-3.54h6.367v-2.35h-8.834v14.04h8.834v-2.348ZM80.747 17.374a7.362 7.362 0 0 0 1.74-1.643c.25-.4.373-.867.354-1.338V7.209a2.205 2.205 0 0 0-.372-1.338c-.285-.402-1.174-1.41-1.695-1.713-.434-.26-.93-.4-1.437-.402h-6.428v14.041h6.428a3.02 3.02 0 0 0 1.41-.423Zm-5.372-1.927V6.104h3.728a.657.657 0 0 1 .215.021c.423.26.778.617 1.038 1.04a.403.403 0 0 1 .019.118v7.07c0 .27-.705.888-1.038 1.075a.497.497 0 0 1-.155.019h-3.807ZM68.587 3.756H66.12v14.048h2.466V3.756ZM160.735 3.756v9.442l-4.824-9.442h-2.651v14.039h2.464V8.47l4.863 9.324h2.612V3.755h-2.464ZM135.992 17.797l-2.789-5.725c.218-.078.424-.19.607-.333a8.008 8.008 0 0 0 1.272-1.241c.282-.426.43-.928.423-1.44V6.996a2.596 2.596 0 0 0-.423-1.43 7.89 7.89 0 0 0-1.272-1.29 3.004 3.004 0 0 0-1.664-.52h-6.601v14.041h2.464V12.25h2.7l2.611 5.547h2.672Zm-2.954-8.757a.21.21 0 0 1-.03.097c-.185.323-.654.774-.862.774h-4.137V6.104h4.255c.231.021.608.488.744.754.022.05.032.103.03.157V9.04ZM147.463 4.08a2.986 2.986 0 0 0-1.456-.421h-3.578a2.957 2.957 0 0 0-1.456.42c-.49.285-1.431 1.29-1.712 1.695a2.324 2.324 0 0 0-.373 1.338v7.357c-.014.47.116.934.373 1.33.281.404 1.222 1.418 1.712 1.693.44.268.942.416 1.456.43H146a3.007 3.007 0 0 0 1.457-.43c.49-.275 1.409-1.29 1.712-1.694.256-.395.387-.858.375-1.329V7.112a2.342 2.342 0 0 0-.375-1.334c-.303-.409-1.222-1.414-1.706-1.698Zm-.369 10.361a.208.208 0 0 1-.03.097c-.275.398-.624.74-1.027 1.008a.4.4 0 0 1-.118.019h-3.393a.3.3 0 0 1-.117-.019 3.695 3.695 0 0 1-1.036-1.008.232.232 0 0 1-.021-.097V7.18a.378.378 0 0 1 .021-.115 3.81 3.81 0 0 1 1.036-1.029c.02-.028.117-.028.117-.028h3.387a.228.228 0 0 1 .117.028c.403.276.751.625 1.027 1.029.03.03.03.115.03.115l.007 7.262ZM122.207 3.756H112.13v2.348h3.807v11.7h2.464v-11.7h3.806V3.756ZM109.481 15.798c.25-.397.379-.86.37-1.329V7.112a2.415 2.415 0 0 0-.37-1.338c-.305-.405-1.225-1.41-1.724-1.694a3.003 3.003 0 0 0-1.435-.421h-3.583a2.937 2.937 0 0 0-1.458.42c-.507.285-1.431 1.29-1.71 1.7-.261.396-.395.863-.385 1.338v7.352c-.009.472.125.935.384 1.33.273.404 1.214 1.418 1.711 1.693.44.269.943.417 1.458.43h3.583a3.005 3.005 0 0 0 1.447-.43c.487-.275 1.407-1.29 1.712-1.694Zm-2.096-1.357a.293.293 0 0 1-.019.097c-.28.4-.635.742-1.044 1.008a.415.415 0 0 1-.118.019h-3.377a.33.33 0 0 1-.116-.019 3.671 3.671 0 0 1-1.031-1.008.175.175 0 0 1-.027-.097V7.18c0-.04.01-.08.027-.115a3.785 3.785 0 0 1 1.031-1.029c.028-.028.116-.028.116-.028h3.386a.231.231 0 0 1 .118.028c.406.276.757.624 1.035 1.029.013.037.02.076.019.115v7.262ZM76.98 36.265h1.418v-6.347h6.32v-1.361h-6.32v-4.98h6.662v-1.37h-8.08v14.058ZM65.191 36.265h1.417v-6.347h6.312v-1.361h-6.312v-4.98h6.664v-1.37h-8.08v14.058ZM57.717 22.207h-2.143l-4.694 14.01v.048h1.483l1.078-3.248h6.423l1.038 3.22v.028h1.516l-4.692-14.037-.01-.02Zm-.95 1.4 2.653 8.042h-5.547l2.63-8.041h.264ZM140.599 29.437l-6.368-1.77a1.048 1.048 0 0 1-.693-1.017v-1.456a.609.609 0 0 1 .087-.285 4.245 4.245 0 0 1 1.438-1.35.558.558 0 0 1 .284-.057h3.287a.504.504 0 0 1 .282.067c.576.37 1.059.87 1.41 1.458.061.093.114.191.157.294l.019.03 1.386-.412h.04l-.021-.03a6.008 6.008 0 0 0-.536-.924c-.275-.36-.925-1.156-1.459-1.477a2.57 2.57 0 0 0-1.204-.372h-3.467a2.51 2.51 0 0 0-1.204.372 8.015 8.015 0 0 0-1.618 1.643c-.206.35-.305.751-.284 1.156v1.438c0 1.065.596 1.985 1.467 2.23l6.387 1.75c.462.118.725.626.725 1.058v1.5a.668.668 0 0 1-.069.285 4.628 4.628 0 0 1-1.456 1.386.535.535 0 0 1-.266.058h-3.698a.692.692 0 0 1-.312-.058 4.847 4.847 0 0 1-1.41-1.467.908.908 0 0 1-.157-.264v-.03l-1.362.384h-.039l.021.04c.143.318.317.623.52.908.263.362.924 1.144 1.447 1.479.373.225.796.355 1.232.379h3.876c.427-.02.841-.151 1.202-.38.617-.454 1.163-1 1.618-1.617.212-.347.315-.75.296-1.156v-1.583c-.04-1.056-.666-1.955-1.558-2.21ZM120.21 36.265h8.081v-1.378h-6.661v-4.97h6.312v-1.36h-6.312v-4.98h6.661v-1.37h-8.081v14.058ZM114.508 29.634a7.83 7.83 0 0 0 1.195-1.223c.241-.362.367-.788.361-1.223v-2.057a2.209 2.209 0 0 0-.361-1.232 8.418 8.418 0 0 0-1.195-1.248 2.406 2.406 0 0 0-1.398-.462h-6.326v14.076h1.419v-6.183h3.444l3.435 6.164v.019h1.618l-3.484-6.183a2.178 2.178 0 0 0 1.292-.448Zm-6.3-6.058h4.881a.696.696 0 0 1 .382.07c.46.29.846.686 1.125 1.155.044.126.06.26.046.393v1.955a.899.899 0 0 1-.048.381 3.364 3.364 0 0 1-1.126 1.108.738.738 0 0 1-.381.087h-4.879v-5.15ZM102.593 22.207h-1.419v14.058h1.419V22.207ZM93.7 22.207h-2.143l-4.697 14.01v.048h1.486l1.077-3.248h6.428l1.047 3.22v.028h1.517l-4.706-14.037-.01-.02Zm-.95 1.4 2.653 8.042h-5.547l2.63-8.041h.263Z" fill="currentColor"/></svg>
